icon-themes/breeze_svg/cmd/sc_datasubtotals.svg

<svg viewBox="0 0 16 16" xmlns="http://www.w3.org/2000/svg"><path d="m4 2v2h-2v1h2v2h1v-2h2v-1h-2v-2zm0 7v2h-2v1h2v2h1v-2h2v-1h-2v-2z" fill="#27ae60"/><path d="m9 2v2h4v-2zm0 10v2h4v-2z" fill="#da4453"/><path d="m9 7v2h4v-2z" fill="#4d4d4d"/></svg>

<svg viewBox="0 0 16 16" xmlns="http://www.w3.org/2000/svg">
  <path
     style="fill:#27ae60"
     d="M 4,2 V 4 H 2 V 5 H 4 V 7 H 5 V 5 H 7 V 4 H 5 V 2 Z m 0,7 v 2 H 2 v 1 h 2 v 2 H 5 V 12 H 7 V 11 H 5 V 9 Z"
     />
  <path
     style="fill:#da4453"
     d="m 9,2 v 2 h 4 V 2 Z m 0,10 v 2 h 4 v -2 z"
     />
  <path
     style="fill:#4d4d4d"
     d="m 9,7 v 2 h 4 V 7 Z"
     />
</svg>
